X:112
T:Reel 112
M:4/4
K:Dmaj
L:1/8
B>E (3EEE d2cd|BEEG FDD2|B>E (3EEE d2cd||BcdB Adcd:||2dcdB ADFD|D2cD BDAF|D2AF BEEc|d2cd BAAF|DFED CDB,C|d2cd BFAF|DFAc BdAF|D2FD EDAF|AddF EDB,D|
